!!!OTL: Die hoechste Freud
!!!ARE: Europa, Mitteleuropa, Deutschland
!!!SCT: A0209
!!!YEM: Copyright 1995, estate of Helmut Schaffrath.
**kern
*ICvox
*Ivox
!! Mixed meters:  4/2; 6/2
*M4/2
*k[b-]
*F:
{2f
=1
2f
2g
1a
=2
2r
2a
2g
2f
=3
1b-
2r
2a
=4
1.5a
3g
3f
3e
3f
=5
1g
2f}
{2f
=6
2f
2g
1a
=7
2r
2a
2g
2f
=8
1b-
2r
2a
=9
1.5a
3g
3f
3e
3f
=10
1g
2f}
{2a
=11
1.5g
3f
3e
3f
3g
3f
1.5d
=12
1c
2r}
{2f
=13
2f
2g
1a
=14
2r
2a
2g
2f
=15
1b-
2r
2a
=16
1.5a
3g
3f
3e
3f
=17
1g
2f}
==
!!!AGN: Romanze, Ballade, Lied
!! Souterliedekens 1540 ad Ps. 61.
!!!ONB: ESAC (Essen Associative Code) Database: ALTDEU
!!!AMT: irregular
!!!AIN: vox
!!!EED: Helmut Schaffrath
!!!EEV: 1.0
*-
